dist/assets/img/corporulian-code/wave-green.svg

<svg width="90" height="6" viewBox="0 0 90 6" fill="none" xmlns="http://www.w3.org/2000/svg">
<path d="M0.824219 3V3C4.10316 5.38468 8.54528 5.38468 11.8242 3V3V3C15.1032 0.615319 19.5453 0.615319 22.8242 3V3V3C26.1032 5.38468 30.5453 5.38468 33.8242 3V3V3C37.1032 0.615319 41.5453 0.615319 44.8242 3V3V3C48.1032 5.38468 52.5453 5.38468 55.8242 3V3V3C59.1032 0.615319 63.5453 0.615319 66.8242 3V3V3C70.1032 5.38468 74.5453 5.38468 77.8242 3V3V3C81.1032 0.615319 85.5453 0.615319 88.8242 3V3" stroke="#38A643" stroke-width="1.6" stroke-linecap="round"/>
</svg>

<svg width="90" height="6" viewBox="0 0 90 6" fill="none" xmlns="http://www.w3.org/2000/svg"><path d="M.824 3v0a9.351 9.351 0 0011 0v0a9.351 9.351 0 0111 0v0a9.351 9.351 0 0011 0v0a9.351 9.351 0 0111 0v0a9.351 9.351 0 0011 0v0a9.351 9.351 0 0111 0v0a9.351 9.351 0 0011 0v0a9.351 9.351 0 0111 0v0" stroke="#38A643" stroke-width="1.6" stroke-linecap="round"/></svg>
